X:1
T:I Left It All with Jesus
T:James McGranahan
T:I Left It All with Jesus
T:Public Domain
T:Public Domain
T:Public Domain
T:Public Domain
C:James McGranahan
Z:Public Domain
%%score ( 1 2 ) ( 3 4 )
L:1/8
M:4/4
K:A
V:1 treble 
V:2 treble 
V:3 bass 
V:4 bass 
V:1
 [CE][CA] | [Ec][Ec][Fd][Ec] [Ec][CA][DA][DF] | C2 CC C2 [CG][CA] | [DB]2 [DE]2 [DF][DG][CA][DB] | %4
w: 1.~Oh, I|left it all with Je- sus, long a-|go (long a- go); All my|I brought Him and my woe|
w: 2.~Oh, I|leave it all with Je- sus, for He|knows (for He knows) How to|the bit- ter from life’s woes|
w: 3.~Oh, I|leave it all with Je- sus, day by|day (day by day); Faith can|ly trust Him, come what may|
w: 4.~Leave, oh|leave it all with Je- sus, droop- ing|soul (droop- ing soul); Tell not|thy sto- ry, but the whole|
 E2 EE E2 [CA][DB] | [Ec][Ec][Fd][Ec] [Ec][CA][DA][DF] | C2 CC C2 [CG][CA] | %7
w: (and my woe); When by faith|saw Him bleed- ing on the tree (on|the tree); Heard His still small|
w: (from life’s woes) How to gild|tear of sor- row with His smile (with|His smile) Make the des- ert|
w: (come what may); Hope has dropped|aye her an- chor, found her rest (found|her rest) In the calm, sure|
w: (but the whole); Worlds on worlds|hang- ing ev- er on His hand (on|His hand), Life and death are|
 [DB]2 [DE]2 [Ec][DB][CA][B,G] | C2 DD C2 ||"^Refrain" [CA][EG] | %10
w: per, “’Tis for thee!” (“’Tis for|thee!”) From my wear-|heart the|
w: den bloom a- while (bloom a-|while) Then with all|weak- ness|
w: ven of His breast (of His|breast). Love es- teems|joy of|
w: ing His com- mand (His com-|mand). Yet His ten-|lov- ing|
 [DF][DF][DF][DF] [FA][^EG][FA][DF] | ([CE]2 [EA]2 [Ac]2) [Ac][Gd] | e4- (ec)[EA][Ec] | %13
w: bur- den rolled a- way; Hap- py day!|hap- * * py day!|From * * my wear-|
w: lean- ing on His might, All is light!|All * * is light!|Then * * with all|
w: hea- ven to a- bide At His side!|At * * His side!|Love * * es- teems|
w: mer- cy makes thee room: Oh, come home!|Oh, * * come home!|Yet * * His ten-|
 (E4 ED)[CA][DB] | [Ec][Ec][Fd][Ec] [Ec][CA][DA][DF] | (C2 CC C2) [CG][CA] | (B4- BE)[Ec][DB] | %17
w: heart * * the bur-|rolled a- way; Hap- py day! hap- py|day! * * * * *||
w: weak- * * ness lean-|on His might, All is light! All is|light! * * * * *||
w: joy * * of hea-|to a- bide At His side! At His|side! * * * * *||
w: lov- * * ing mer-|makes thee room: Oh, come home! Oh, come|home! * * * * *||
 [CA]6 |] %18
w: |
w: |
w: |
w: |
V:2
 x2 | x8 | E6 x2 | x8 | c6 x2 | x8 | E6 x2 | x8 | A6 || x2 | x8 | x8 | A6 x2 | B6 x2 | x8 | E6 x2 | %16
w: ||sins||I||whis-||y||||y|den|||
w: ||steal||the||gar-||my||||my|ing|||
w: ||firm-||for||ha-||it||||it|ven|||
w: ||half||are||wait-||der,||||der,|cy|||
 D6 x2 | x6 |] %18
w: ||
w: ||
w: ||
w: ||
V:3
 [A,,A,][A,,E,] | [A,,A,][A,,A,][A,,A,][A,,A,] [A,,A,][A,,A,][D,F,][D,A,] | %2
 [A,,A,]2 [A,,A,][A,,A,] [A,,A,]2 [A,,E,][A,,E,] | [E,G,]2 [E,G,]2 [E,G,][E,B,][E,A,][E,G,] | %4
 [A,,A,]2 [A,,A,][A,,A,] [A,,A,]2 [A,,A,][A,,A,] | %5
 [A,,A,][A,,A,][A,,A,][A,,A,] [A,,A,][A,,E,][D,F,][D,A,] | %6
 [A,,A,]2 [A,,A,][A,,A,] [A,,A,]2 [A,,E,][A,,E,] | [E,G,]2 [E,G,]2 [E,A,][E,G,][E,A,]E, | %8
 E,2 F,F, E,2 || [A,,A,][C,A,] | [D,A,][D,A,][D,A,][D,A,] [D,D][D,D][D,D][F,A,] | %11
 (A,2 C2 E2) [A,E][E,D] | C4- CE[A,C]A, | [E,G,]6 [E,A,][E,G,] | %14
 [A,,A,][A,,A,][A,,A,][A,,A,] [A,,A,][A,,E,][D,F,][D,A,] | %15
 [A,,A,]2 [A,,A,][A,,A,] [A,,A,]2 [A,,E,][A,,E,] | G,4- G,B,[E,A,]E, | [A,,E,]6 |] %18
V:4
 x2 | x8 | x8 | x8 | x8 | x8 | x8 | x7 E, | A,,6 || x2 | x8 | A,6 x2 | A,6 A, x | x8 | x8 | x8 | %16
 E,6 E, x | x6 |] %18

